shader_type spatial;

void vertex() {
	INSTANCE_CUSTOM;
}

void fragment() {
	//COLOR = INSTANCE_CUSTOM;
}

//void light() {
//	// Called for every pixel for every light affecting the material.
//	// Uncomment to replace the default light processing function with this one.
//}
