shader_type spatial;

void vertex() {
	//POSITION.z = 1000.0;
}

void fragment() {
	// Called for every pixel the material is visible on.
	//DEPTH = 0.0;
}

//void light() {
//	// Called for every pixel for every light affecting the material.
//	// Uncomment to replace the default light processing function with this one.
//}
